bernoullicharts/2014_add_x_0_5_bits.svg

<?xml version="1.0" encoding="utf-8" standalone="no"?>
<!DOCTYPE svg PUBLIC "-//W3C//DTD SVG 1.1//EN"
  "http://www.w3.org/Graphics/SVG/1.1/DTD/svg11.dtd">
<!-- Created with matplotlib (https://matplotlib.org/) -->
<svg height="345.6pt" version="1.1" viewBox="0 0 460.8 345.6" width="460.8pt" xmlns="http://www.w3.org/2000/svg" xmlns:xlink="http://www.w3.org/1999/xlink">
 <defs>
  <style type="text/css">
*{stroke-linecap:butt;stroke-linejoin:round;}
  </style>
 </defs>
 <g id="figure_1">
  <g id="patch_1">
   <path d="M 0 345.6 
L 460.8 345.6 
L 460.8 0 
L 0 0 
z
" style="fill:#ffffff;"/>
  </g>
  <g id="axes_1">
   <g id="patch_2">
    <path d="M 57.6 307.584 
L 414.72 307.584 
L 414.72 41.472 
L 57.6 41.472 
z
" style="fill:#ffffff;"/>
   </g>
   <g id="matplotlib.axis_1">
    <g id="xtick_1">
     <g id="line2d_1">
      <defs>
       <path d="M 0 0 
L 0 3.5 
" id="meb57380575" style="stroke:#000000;stroke-width:0.8;"/>
      </defs>
      <g>
       <use style="stroke:#000000;stroke-width:0.8;" x="73.752359" xlink:href="#meb57380575" y="307.584"/>
      </g>
     </g>
     <g id="text_1">
      <text style="font-family:DejaVu Sans;font-size:10px;font-style:normal;font-weight:normal;text-anchor:middle;" transform="rotate(-0, 73.752359, 322.182437)" x="73.752359" y="322.182437">0.00</text>
     </g>
    </g>
    <g id="xtick_2">
     <g id="line2d_2">
      <g>
       <use style="stroke:#000000;stroke-width:0.8;" x="113.936396" xlink:href="#meb57380575" y="307.584"/>
      </g>
     </g>
     <g id="text_2">
      <text style="font-family:DejaVu Sans;font-size:10px;font-style:normal;font-weight:normal;text-anchor:middle;" transform="rotate(-0, 113.936396, 322.182437)" x="113.936396" y="322.182437">0.05</text>
     </g>
    </g>
    <g id="xtick_3">
     <g id="line2d_3">
      <g>
       <use style="stroke:#000000;stroke-width:0.8;" x="154.120433" xlink:href="#meb57380575" y="307.584"/>
      </g>
     </g>
     <g id="text_3">
      <text style="font-family:DejaVu Sans;font-size:10px;font-style:normal;font-weight:normal;text-anchor:middle;" transform="rotate(-0, 154.120433, 322.182437)" x="154.120433" y="322.182437">0.10</text>
     </g>
    </g>
    <g id="xtick_4">
     <g id="line2d_4">
      <g>
       <use style="stroke:#000000;stroke-width:0.8;" x="194.30447" xlink:href="#meb57380575" y="307.584"/>
      </g>
     </g>
     <g id="text_4">
      <text style="font-family:DejaVu Sans;font-size:10px;font-style:normal;font-weight:normal;text-anchor:middle;" transform="rotate(-0, 194.30447, 322.182437)" x="194.30447" y="322.182437">0.15</text>
     </g>
    </g>
    <g id="xtick_5">
     <g id="line2d_5">
      <g>
       <use style="stroke:#000000;stroke-width:0.8;" x="234.488506" xlink:href="#meb57380575" y="307.584"/>
      </g>
     </g>
     <g id="text_5">
      <text style="font-family:DejaVu Sans;font-size:10px;font-style:normal;font-weight:normal;text-anchor:middle;" transform="rotate(-0, 234.488506, 322.182437)" x="234.488506" y="322.182437">0.20</text>
     </g>
    </g>
    <g id="xtick_6">
     <g id="line2d_6">
      <g>
       <use style="stroke:#000000;stroke-width:0.8;" x="274.672543" xlink:href="#meb57380575" y="307.584"/>
      </g>
     </g>
     <g id="text_6">
      <text style="font-family:DejaVu Sans;font-size:10px;font-style:normal;font-weight:normal;text-anchor:middle;" transform="rotate(-0, 274.672543, 322.182437)" x="274.672543" y="322.182437">0.25</text>
     </g>
    </g>
    <g id="xtick_7">
     <g id="line2d_7">
      <g>
       <use style="stroke:#000000;stroke-width:0.8;" x="314.85658" xlink:href="#meb57380575" y="307.584"/>
      </g>
     </g>
     <g id="text_7">
      <text style="font-family:DejaVu Sans;font-size:10px;font-style:normal;font-weight:normal;text-anchor:middle;" transform="rotate(-0, 314.85658, 322.182437)" x="314.85658" y="322.182437">0.30</text>
     </g>
    </g>
    <g id="xtick_8">
     <g id="line2d_8">
      <g>
       <use style="stroke:#000000;stroke-width:0.8;" x="355.040617" xlink:href="#meb57380575" y="307.584"/>
      </g>
     </g>
     <g id="text_8">
      <text style="font-family:DejaVu Sans;font-size:10px;font-style:normal;font-weight:normal;text-anchor:middle;" transform="rotate(-0, 355.040617, 322.182437)" x="355.040617" y="322.182437">0.35</text>
     </g>
    </g>
    <g id="xtick_9">
     <g id="line2d_9">
      <g>
       <use style="stroke:#000000;stroke-width:0.8;" x="395.224654" xlink:href="#meb57380575" y="307.584"/>
      </g>
     </g>
     <g id="text_9">
      <text style="font-family:DejaVu Sans;font-size:10px;font-style:normal;font-weight:normal;text-anchor:middle;" transform="rotate(-0, 395.224654, 322.182437)" x="395.224654" y="322.182437">0.40</text>
     </g>
    </g>
    <g id="text_10">
     <text style="font-family:DejaVu Sans;font-size:10px;font-style:normal;font-weight:normal;text-anchor:middle;" transform="rotate(-0, 236.16, 335.860562)" x="236.16" y="335.860562">Probability</text>
    </g>
   </g>
   <g id="matplotlib.axis_2">
    <g id="ytick_1">
     <g id="line2d_10">
      <defs>
       <path d="M 0 0 
L -3.5 0 
" id="m0a7371ee30" style="stroke:#000000;stroke-width:0.8;"/>
      </defs>
      <g>
       <use style="stroke:#000000;stroke-width:0.8;" x="57.6" xlink:href="#m0a7371ee30" y="296.20591"/>
      </g>
     </g>
     <g id="text_11">
      <text style="font-family:DejaVu Sans;font-size:10px;font-style:normal;font-weight:normal;text-anchor:end;" transform="rotate(-0, 50.6, 300.005128)" x="50.6" y="300.005128">50</text>
     </g>
    </g>
    <g id="ytick_2">
     <g id="line2d_11">
      <g>
       <use style="stroke:#000000;stroke-width:0.8;" x="57.6" xlink:href="#m0a7371ee30" y="247.698507"/>
      </g>
     </g>
     <g id="text_12">
      <text style="font-family:DejaVu Sans;font-size:10px;font-style:normal;font-weight:normal;text-anchor:end;" transform="rotate(-0, 50.6, 251.497725)" x="50.6" y="251.497725">100</text>
     </g>
    </g>
    <g id="ytick_3">
     <g id="line2d_12">
      <g>
       <use style="stroke:#000000;stroke-width:0.8;" x="57.6" xlink:href="#m0a7371ee30" y="199.191104"/>
      </g>
     </g>
     <g id="text_13">
      <text style="font-family:DejaVu Sans;font-size:10px;font-style:normal;font-weight:normal;text-anchor:end;" transform="rotate(-0, 50.6, 202.990323)" x="50.6" y="202.990323">150</text>
     </g>
    </g>
    <g id="ytick_4">
     <g id="line2d_13">
      <g>
       <use style="stroke:#000000;stroke-width:0.8;" x="57.6" xlink:href="#m0a7371ee30" y="150.683701"/>
      </g>
     </g>
     <g id="text_14">
      <text style="font-family:DejaVu Sans;font-size:10px;font-style:normal;font-weight:normal;text-anchor:end;" transform="rotate(-0, 50.6, 154.48292)" x="50.6" y="154.48292">200</text>
     </g>
    </g>
    <g id="ytick_5">
     <g id="line2d_14">
      <g>
       <use style="stroke:#000000;stroke-width:0.8;" x="57.6" xlink:href="#m0a7371ee30" y="102.176298"/>
      </g>
     </g>
     <g id="text_15">
      <text style="font-family:DejaVu Sans;font-size:10px;font-style:normal;font-weight:normal;text-anchor:end;" transform="rotate(-0, 50.6, 105.975517)" x="50.6" y="105.975517">250</text>
     </g>
    </g>
    <g id="ytick_6">
     <g id="line2d_15">
      <g>
       <use style="stroke:#000000;stroke-width:0.8;" x="57.6" xlink:href="#m0a7371ee30" y="53.668895"/>
      </g>
     </g>
     <g id="text_16">
      <text style="font-family:DejaVu Sans;font-size:10px;font-style:normal;font-weight:normal;text-anchor:end;" transform="rotate(-0, 50.6, 57.468114)" x="50.6" y="57.468114">300</text>
     </g>
    </g>
    <g id="text_17">
     <text style="font-family:DejaVu Sans;font-size:10px;font-style:normal;font-weight:normal;text-anchor:middle;" transform="rotate(-90, 25.432812, 174.528)" x="25.432812" y="174.528">Average Bits Consumed Per Call</text>
    </g>
   </g>
   <g id="line2d_16">
    <path clip-path="url(#p3039f1f4b6)" d="M 73.832727 291.16308 
L 81.949091 283.980104 
L 90.065455 291.846064 
L 98.181818 292.261288 
L 106.298182 291.529796 
L 114.414545 288.590247 
L 122.530909 284.763983 
L 130.647273 289.511888 
L 138.763636 288.400098 
L 146.88 292.269049 
L 154.996364 289.925171 
L 163.112727 278.382349 
L 171.229091 295.488 
L 179.345455 282.321151 
L 187.461818 283.644433 
L 195.578182 278.351305 
L 203.694545 268.597436 
L 211.810909 274.230116 
L 219.927273 274.344593 
L 228.043636 270.817135 
L 236.16 240.750306 
M 252.392727 265.058336 
L 260.509091 264.146397 
L 268.625455 271.742656 
M 284.858182 273.93325 
M 325.44 241.369261 
M 341.672727 237.131654 
M 357.905455 220.860331 
L 366.021818 204.542441 
M 390.370909 193.042306 
L 398.487273 222.998537 
" style="fill:none;stroke:#1f77b4;stroke-linecap:square;stroke-width:1.5;"/>
   </g>
   <g id="line2d_17">
    <path clip-path="url(#p3039f1f4b6)" d="M 73.832727 237.808817 
L 81.949091 223.654357 
L 90.065455 236.068372 
L 98.181818 223.188686 
L 106.298182 225.039729 
L 114.414545 228.664202 
L 122.530909 202.629309 
L 130.647273 207.317064 
L 138.763636 203.991396 
L 146.88 197.823195 
L 154.996364 194.270513 
L 163.112727 192.978276 
L 171.229091 183.11187 
L 179.345455 175.420536 
L 187.461818 177.560683 
L 195.578182 198.581851 
L 203.694545 177.058146 
L 211.810909 163.627416 
L 219.927273 177.236653 
L 228.043636 167.075323 
L 236.16 143.083561 
L 244.276364 157.550409 
L 252.392727 168.897261 
L 260.509091 162.748462 
M 276.741818 110.519572 
L 284.858182 93.010339 
M 309.207273 89.484821 
M 325.44 53.568 
" style="fill:none;stroke:#ff7f0e;stroke-linecap:square;stroke-width:1.5;"/>
   </g>
   <g id="line2d_18">
    <path clip-path="url(#p3039f1f4b6)" d="M 0 0 
" style="fill:none;stroke:#2ca02c;stroke-linecap:square;stroke-width:1.5;"/>
   </g>
   <g id="patch_3">
    <path d="M 57.6 307.584 
L 57.6 41.472 
" style="fill:none;stroke:#000000;stroke-linecap:square;stroke-linejoin:miter;stroke-width:0.8;"/>
   </g>
   <g id="patch_4">
    <path d="M 414.72 307.584 
L 414.72 41.472 
" style="fill:none;stroke:#000000;stroke-linecap:square;stroke-linejoin:miter;stroke-width:0.8;"/>
   </g>
   <g id="patch_5">
    <path d="M 57.6 307.584 
L 414.72 307.584 
" style="fill:none;stroke:#000000;stroke-linecap:square;stroke-linejoin:miter;stroke-width:0.8;"/>
   </g>
   <g id="patch_6">
    <path d="M 57.6 41.472 
L 414.72 41.472 
" style="fill:none;stroke:#000000;stroke-linecap:square;stroke-linejoin:miter;stroke-width:0.8;"/>
   </g>
   <g id="text_18">
    <text style="font-family:DejaVu Sans;font-size:12px;font-style:normal;font-weight:normal;text-anchor:middle;" transform="rotate(-0, 236.16, 35.472)" x="236.16" y="35.472">Avg. Bits Consumed by 2014 Add. x+0.5 Algorithm</text>
   </g>
   <g id="legend_1">
    <g id="patch_7">
     <path d="M 64.6 93.506375 
L 181.148438 93.506375 
Q 183.148438 93.506375 183.148438 91.506375 
L 183.148438 48.472 
Q 183.148438 46.472 181.148438 46.472 
L 64.6 46.472 
Q 62.6 46.472 62.6 48.472 
L 62.6 91.506375 
Q 62.6 93.506375 64.6 93.506375 
z
" style="fill:#ffffff;opacity:0.8;stroke:#cccccc;stroke-linejoin:miter;"/>
    </g>
    <g id="line2d_19">
     <path d="M 66.6 54.570438 
L 86.6 54.570438 
" style="fill:none;stroke:#1f77b4;stroke-linecap:square;stroke-width:1.5;"/>
    </g>
    <g id="line2d_20"/>
    <g id="text_19">
     <text style="font-family:DejaVu Sans;font-size:10px;font-style:normal;font-weight:normal;text-anchor:start;" transform="rotate(-0, 94.6, 58.070438)" x="94.6" y="58.070438">2014 Add. x+0.5</text>
    </g>
    <g id="line2d_21">
     <path d="M 66.6 69.248563 
L 86.6 69.248563 
" style="fill:none;stroke:#ff7f0e;stroke-linecap:square;stroke-width:1.5;"/>
    </g>
    <g id="line2d_22"/>
    <g id="text_20">
     <text style="font-family:DejaVu Sans;font-size:10px;font-style:normal;font-weight:normal;text-anchor:start;" transform="rotate(-0, 94.6, 72.748563)" x="94.6" y="72.748563">2016 Add. x+0.5</text>
    </g>
    <g id="line2d_23">
     <path d="M 66.6 83.926688 
L 86.6 83.926688 
" style="fill:none;stroke:#2ca02c;stroke-linecap:square;stroke-width:1.5;"/>
    </g>
    <g id="line2d_24"/>
    <g id="text_21">
     <text style="font-family:DejaVu Sans;font-size:10px;font-style:normal;font-weight:normal;text-anchor:start;" transform="rotate(-0, 94.6, 87.426688)" x="94.6" y="87.426688">2019 Add. x+0.5</text>
    </g>
   </g>
  </g>
 </g>
 <defs>
  <clipPath id="p3039f1f4b6">
   <rect height="266.112" width="357.12" x="57.6" y="41.472"/>
  </clipPath>
 </defs>
</svg>

<svg height="460.8" viewBox="0 0 460.8 345.6" width="614.4" xmlns="http://www.w3.org/2000/svg" xmlns:xlink="http://www.w3.org/1999/xlink"><defs><style>*{stroke-linecap:butt;stroke-linejoin:round}</style></defs><g id="figure_1"><path d="M0 345.6h460.8V0H0z" fill="#fff" id="patch_1"/><g id="axes_1"><path d="M57.6 307.584h357.12V41.472H57.6z" fill="#fff" id="patch_2"/><g id="matplotlib.axis_1"><g id="xtick_1"><g id="line2d_1"><defs><path d="M0 0v3.5" id="meb57380575" stroke="#000" stroke-width=".8"/></defs><use x="73.752" xlink:href="#meb57380575" y="307.584" stroke="#000" stroke-width=".8"/></g><text x="73.752" y="322.182" font-family="DejaVu Sans" font-size="10" font-weight="400" text-anchor="middle" id="text_1">0.00</text></g><g id="xtick_2"><use x="113.936" xlink:href="#meb57380575" y="307.584" stroke="#000" stroke-width=".8" id="line2d_2"/><text x="113.936" y="322.182" font-family="DejaVu Sans" font-size="10" font-weight="400" text-anchor="middle" id="text_2">0.05</text></g><g id="xtick_3"><use x="154.12" xlink:href="#meb57380575" y="307.584" stroke="#000" stroke-width=".8" id="line2d_3"/><text x="154.12" y="322.182" font-family="DejaVu Sans" font-size="10" font-weight="400" text-anchor="middle" id="text_3">0.10</text></g><g id="xtick_4"><use x="194.304" xlink:href="#meb57380575" y="307.584" stroke="#000" stroke-width=".8" id="line2d_4"/><text x="194.304" y="322.182" font-family="DejaVu Sans" font-size="10" font-weight="400" text-anchor="middle" id="text_4">0.15</text></g><g id="xtick_5"><use x="234.489" xlink:href="#meb57380575" y="307.584" stroke="#000" stroke-width=".8" id="line2d_5"/><text x="234.489" y="322.182" font-family="DejaVu Sans" font-size="10" font-weight="400" text-anchor="middle" id="text_5">0.20</text></g><g id="xtick_6"><use x="274.673" xlink:href="#meb57380575" y="307.584" stroke="#000" stroke-width=".8" id="line2d_6"/><text x="274.673" y="322.182" font-family="DejaVu Sans" font-size="10" font-weight="400" text-anchor="middle" id="text_6">0.25</text></g><g id="xtick_7"><use x="314.857" xlink:href="#meb57380575" y="307.584" stroke="#000" stroke-width=".8" id="line2d_7"/><text x="314.857" y="322.182" font-family="DejaVu Sans" font-size="10" font-weight="400" text-anchor="middle" id="text_7">0.30</text></g><g id="xtick_8"><use x="355.041" xlink:href="#meb57380575" y="307.584" stroke="#000" stroke-width=".8" id="line2d_8"/><text x="355.041" y="322.182" font-family="DejaVu Sans" font-size="10" font-weight="400" text-anchor="middle" id="text_8">0.35</text></g><g id="xtick_9"><use x="395.225" xlink:href="#meb57380575" y="307.584" stroke="#000" stroke-width=".8" id="line2d_9"/><text x="395.225" y="322.182" font-family="DejaVu Sans" font-size="10" font-weight="400" text-anchor="middle" id="text_9">0.40</text></g><text x="236.16" y="335.861" font-family="DejaVu Sans" font-size="10" font-weight="400" text-anchor="middle" id="text_10">Probability</text></g><g id="matplotlib.axis_2"><g id="ytick_1"><g id="line2d_10"><defs><path d="M0 0h-3.5" id="m0a7371ee30" stroke="#000" stroke-width=".8"/></defs><use x="57.6" xlink:href="#m0a7371ee30" y="296.206" stroke="#000" stroke-width=".8"/></g><text x="50.6" y="300.005" font-family="DejaVu Sans" font-size="10" font-weight="400" text-anchor="end" id="text_11">50</text></g><g id="ytick_2"><use x="57.6" xlink:href="#m0a7371ee30" y="247.699" stroke="#000" stroke-width=".8" id="line2d_11"/><text x="50.6" y="251.498" font-family="DejaVu Sans" font-size="10" font-weight="400" text-anchor="end" id="text_12">100</text></g><g id="ytick_3"><use x="57.6" xlink:href="#m0a7371ee30" y="199.191" stroke="#000" stroke-width=".8" id="line2d_12"/><text x="50.6" y="202.99" font-family="DejaVu Sans" font-size="10" font-weight="400" text-anchor="end" id="text_13">150</text></g><g id="ytick_4"><use x="57.6" xlink:href="#m0a7371ee30" y="150.684" stroke="#000" stroke-width=".8" id="line2d_13"/><text x="50.6" y="154.483" font-family="DejaVu Sans" font-size="10" font-weight="400" text-anchor="end" id="text_14">200</text></g><g id="ytick_5"><use x="57.6" xlink:href="#m0a7371ee30" y="102.176" stroke="#000" stroke-width=".8" id="line2d_14"/><text x="50.6" y="105.976" font-family="DejaVu Sans" font-size="10" font-weight="400" text-anchor="end" id="text_15">250</text></g><g id="ytick_6"><use x="57.6" xlink:href="#m0a7371ee30" y="53.669" stroke="#000" stroke-width=".8" id="line2d_15"/><text x="50.6" y="57.468" font-family="DejaVu Sans" font-size="10" font-weight="400" text-anchor="end" id="text_16">300</text></g><text transform="rotate(-90 25.433 174.528)" x="25.433" y="174.528" font-family="DejaVu Sans" font-size="10" font-weight="400" text-anchor="middle" id="text_17">Average Bits Consumed Per Call</text></g><path clip-path="url(#p3039f1f4b6)" d="M73.833 291.163l8.116-7.183 8.116 7.866 8.117.415 8.116-.731 8.117-2.94 8.116-3.826 8.116 4.748 8.117-1.112 8.116 3.869 8.116-2.344 8.117-11.543 8.116 17.106 8.116-13.167 8.117 1.323 8.116-5.293 8.117-9.754 8.116 5.633 8.116.115 8.117-3.528 8.116-30.067m16.233 24.308l8.116-.912 8.116 7.597M357.905 220.86l8.117-16.318m24.349-11.5L398.487 223" fill="none" stroke="#1f77b4" stroke-linecap="square" stroke-width="1.5" id="line2d_16"/><path clip-path="url(#p3039f1f4b6)" d="M73.833 237.809l8.116-14.155 8.116 12.414 8.117-12.88 8.116 1.852 8.117 3.624 8.116-26.035 8.116 4.688 8.117-3.326 8.116-6.168 8.116-3.552 8.117-1.293 8.116-9.866 8.116-7.691 8.117 2.14 8.116 21.02 8.117-21.523 8.116-13.43 8.116 13.609 8.117-10.162 8.116-23.991 8.116 14.466 8.117 11.347 8.116-6.149m16.233-52.228l8.116-17.51m40.582-39.442" fill="none" stroke="#ff7f0e" stroke-linecap="square" stroke-width="1.5" id="line2d_17"/><path d="M57.6 307.584V41.472" fill="none" stroke="#000" stroke-linecap="square" stroke-width=".8" id="patch_3"/><path d="M414.72 307.584V41.472" fill="none" stroke="#000" stroke-linecap="square" stroke-width=".8" id="patch_4"/><path d="M57.6 307.584h357.12" fill="none" stroke="#000" stroke-linecap="square" stroke-width=".8" id="patch_5"/><path d="M57.6 41.472h357.12" fill="none" stroke="#000" stroke-linecap="square" stroke-width=".8" id="patch_6"/><text x="236.16" y="35.472" font-family="DejaVu Sans" font-size="12" font-weight="400" text-anchor="middle" id="text_18">Avg. Bits Consumed by 2014 Add. x+0.5 Algorithm</text><g id="legend_1"><path d="M64.6 93.506h116.548q2 0 2-2V48.472q0-2-2-2H64.6q-2 0-2 2v43.034q0 2 2 2z" fill="#fff" opacity=".8" stroke="#ccc" id="patch_7"/><path d="M66.6 54.57h20" fill="none" stroke="#1f77b4" stroke-linecap="square" stroke-width="1.5" id="line2d_19"/><text x="94.6" y="58.07" font-family="DejaVu Sans" font-size="10" font-weight="400" id="text_19">2014 Add. x+0.5</text><path d="M66.6 69.249h20" fill="none" stroke="#ff7f0e" stroke-linecap="square" stroke-width="1.5" id="line2d_21"/><text x="94.6" y="72.749" font-family="DejaVu Sans" font-size="10" font-weight="400" id="text_20">2016 Add. x+0.5</text><path d="M66.6 83.927h20" fill="none" stroke="#2ca02c" stroke-linecap="square" stroke-width="1.5" id="line2d_23"/><text x="94.6" y="87.427" font-family="DejaVu Sans" font-size="10" font-weight="400" id="text_21">2019 Add. x+0.5</text></g></g></g><defs><clipPath id="p3039f1f4b6"><path d="M57.6 41.472h357.12v266.112H57.6z"/></clipPath></defs></svg>
